X: 14565
T: Gan Ainm
R: reel
M: 4/4
K: Dmajor
A3B AGFE|D2 DF ADFA|GEED =c3A|(3Bcd ed =cAGc|
Ad d2 AdFG|Aafg g2 ag|fded =cAGc|1 ABBA dAFG:|2 ABBA defg||
|:a3f gafe|dfed ceBc|A2 eA fAec|dcAF GBAG|
FADA GBEB|Aafg g2 ag|fded =cAGc|1 ABBA defg:|2 ABBA dAFG||

